X:1
T:Tallahassee, 77.77 D
T:Tallahassee, 77.77 D
T:H. B. Greongils, 1898
T:Public Domain Courtesy of the Cyber Hymnal™
C:H. B. Greongils, 1898
Z:Public Domain
Z:Courtesy of the Cyber Hymnal™
%%score ( 1 2 ) 3
L:1/8
Q:1/4=95
M:3/4
K:Db
V:1 treble 
V:2 treble 
V:3 bass 
V:1
 [FA]>[FA] | [FA]3 [FA] [GB]>[DF] | [FA]4 [FA]>[Fd] | [Gc]3 [Ge] [GB]>[Gc] | [Fd]4 [FA]>[FA] | %5
 [FA]3 [FA] [GB]>[DF] | [FA]4 [FA]>[Fd] | [Gc]3 [Ge] [GB]>[Gc] | [Fd]4 [Ec]>[Fd] | %9
 [Ge]3 [Gc] [GB]>[GA] | [Fd]4 [Ec]>[Fd] | [Ae]3 [Bd] [Ac]>[=GB] | A4 [FA]>[FA] | %13
 [FA]3 [FA] [GB]>[DF] | [FA]4 [FA]>[Fd] | [Gc]3 [Ge] [GB]>[Gc] | [Fd]4 |] %17
V:2
 x2 | x6 | x6 | x6 | x6 | x6 | x6 | x6 | x6 | x6 | x6 | x6 | A4 x2 | x6 | x6 | x6 | x4 |] %17
V:3
 [D,D]>[D,D] | [D,D]3 [D,D] [D,D]>[D,A,] | [D,D]4 [D,D]>[D,D] | [A,,E]3 [A,,C] [A,,E]>[A,,E] | %4
 [D,D]4 [D,D]>[D,D] | [D,D]3 [D,D] [D,D]>[D,A,] | [D,D]4 [D,D]>[D,D] | %7
 [A,,E]3 [A,,C] [A,,E]>[A,,E] | [D,D]4 [A,E]>[A,D] | [A,C]3 [A,E] [A,E]>[A,E] | %10
 [D,D]4 [A,E]>[A,D] | [A,C]3 [D,F] [E,E]>[E,D] | [A,,A,C]4 [D,D]>[D,D] | %13
 [D,D]3 [D,D] [D,D]>[D,A,] | [D,D]4 [D,D]>[D,D] | [A,,E]3 [A,,C] [A,,E]>[A,,A,] | [D,A,]4 |] %17

